public/images/logos/los-angeles-kings.svg

<svg viewBox="0 0 24 16" xmlns="http://www.w3.org/2000/svg"><path d="m18.518.22h-.252-12.532-.252v.252 10.468.13l.104.075 6.266 4.527.148.108.148-.107 6.265-4.527.104-.075v-.13-10.469-.252z" fill="#111"/><path d="m5.734 10.969 6.266 4.529 6.266-4.529v-10.468h-12.532z" fill="#fff"/><path d="m16.395 13.434c0-.07-.058-.127-.127-.127h-.182v.43h.08v-.176h.058l.081.176h.09l-.085-.182c.048-.02.085-.067.085-.121zm-.127.046h-.102v-.094h.102c.025 0 .046.021.046.047s-.021.047-.046.047z" fill="#111"/><path d="m16.24 13.145c-.207 0-.375.17-.375.377 0 .205.168.373.375.373s.374-.168.374-.373c0-.208-.167-.377-.374-.377zm0 .669c-.163 0-.295-.131-.295-.293 0-.164.132-.295.295-.295.162 0 .294.131.294.295 0 .163-.132.293-.294.293z" fill="#111"/><path d="m6.147 10.758 5.853 4.23 5.852-4.23v-2.575h-11.705zm0-2.937h11.704v-6.906h-11.704z" fill="#acaea9"/><path d="m6.517 10.57 5.483 3.963 5.482-3.963v-1.746h-10.965zm0-3.293h10.966v-5.993h-10.966z" fill="#111"/><path d="m7.86 5.582v-1.301c0-1.51.352-2.049.352-2.049h-1.366s.352.539.352 2.049c0 1.509-.352 2.048-.352 2.048h4.461s.372-.506.372-1.277c0 0-.509.53-1.704.53zm4.209-3.35s.353.539.353 2.049c0 1.509-.353 2.048-.353 2.048h1.015v-1.526h3.057v1.526h1.014s-.353-.539-.353-2.048c0-1.51.353-2.049.353-2.049z" fill="#acaea9"/><path d="m12.223 2.327c.106.251.294.846.294 1.955 0 1.108-.188 1.703-.294 1.953h.767v-1.527h3.246v1.526h.766c-.106-.25-.293-.845-.293-1.953 0-1.109.187-1.704.293-1.955-.278.001-4.502.001-4.779.001zm-4.457 3.35v-1.396c0-1.109.187-1.704.294-1.955h-1.061c.106.251.293.846.293 1.955 0 1.108-.187 1.703-.293 1.953h4.257c.069-.11.27-.471.316-.98-.243.167-.751.423-1.598.423z" fill="#fff"/><path d="m12.989 4.15h3.246v-1.265h-3.246z" fill="#acaea9"/><path d="m13.084 2.979h3.057v1.077h-3.057z"/><path d="m13.647 12.633.408-2.332-.086-.037s-.33.443-.394.527c-.136-.168-.395-.375-.746-.49.027-.066.155-.379.155-.379s-.196.08-.28.113c.008-.016.018-.033.018-.033s-.3.016-.347.018c-.024-.041-.188-.332-.211-.371.02-.033.082-.143.088-.154.011-.008.088-.074.088-.074l-.1-.191-.212.015s-.003.099-.004.118l-.024.039-.024-.039c-.001-.02-.005-.118-.005-.118l-.212-.015-.1.189s.077.066.087.074c.008.012.069.121.089.154-.022.039-.186.33-.21.371-.048-.002-.348-.018-.348-.018s.009.018.018.033c-.084-.033-.28-.113-.28-.113s.127.312.155.379c-.351.115-.61.322-.747.49-.062-.084-.394-.527-.394-.527l-.084.037.406 2.332s.578.148 1.648.148c1.07.002 1.648-.146 1.648-.146z" fill="#fff"/><path d="m11.662 12.674s-.529-.049-.844-.17c.214.031.562.072.881.072 0 0-.431-.043-.716-.15.216.027.522.061.805.061 0 0-.42-.043-.705-.148.256-.055.57-.098.917-.098s.66.043.916.098c-.285.105-.704.148-.704.148.281 0 .588-.033.804-.061-.285.107-.715.15-.715.15.317 0 .666-.041.881-.072-.314.121-.845.17-.845.17.78-.021 1.242-.137 1.242-.137l.357-2.08-.362.484c-.159-.26-.469-.469-.865-.584l.109-.266-.56.25v-.137l-.258-.444-.26.445v.137l-.561-.25.109.266c-.396.115-.704.324-.864.584l-.362-.484.358 2.08c.001-.001.463.114 1.242.136z" fill="#111"/><g fill="#acaea9"><path d="m11.74 10.393-.473-.211.473 1.15zm.519 0v.939l.474-1.15zm-.048-.02-.211-.275-.212.275.212.252z"/><path d="m13.656 11.811c-.093-.016-.164-.102-.164-.203 0-.113.087-.205.193-.205.015 0 .027 0 .04.004l.132-.766-.573.766c.013.367-.077.516-.077.516s-.191-.078-.406-.121l-.074-.371c-.033 0-.062-.01-.088-.027h-.002l-.189.342s-.237-.023-.356-.023l.107-.328-.199-.512-.197.51.106.328c-.12 0-.357.023-.357.023l-.174-.316c-.011.002-.022.002-.034.002-.024 0-.047-.006-.067-.016l-.078.387c-.214.043-.406.121-.406.121s-.089-.148-.077-.516l-.573-.766.132.766c.013-.004.026-.004.04-.004.107 0 .194.092.194.205 0 .102-.072.188-.165.203l.114.662c.181-.07.787-.279 1.543-.279.755 0 1.362.209 1.543.279z"/></g><path d="m12.089 10.365c0-.049-.041-.09-.089-.09-.05 0-.088.041-.088.09s.038.088.088.088c.048 0 .089-.039.089-.088zm.39.092c-.017-.021-.042-.035-.07-.035-.049 0-.088.039-.088.09 0 .039.028.076.066.086.015.008.03.014.047.014.047 0 .084-.037.084-.084 0-.03-.016-.057-.039-.071zm-.856 0c-.017-.021-.042-.035-.071-.035-.049 0-.088.039-.088.09 0 .039.029.076.067.086.014.008.029.014.047.014.047 0 .084-.037.084-.084 0-.03-.016-.057-.039-.071z" fill="#111"/><g fill="#fff"><path d="m10.489 11.029.099.131c.24-.471.722-.523.722-.523-.412.154-.585.395-.641.633l.093.121s-.012.332.055.473c.021-.01.044-.018.071-.025-.215-.885.481-1.047.481-1.047-.492.254-.445.707-.346 1.004.041-.01.086-.021.136-.033l.074-.367c-.064-.023-.109-.086-.109-.158 0-.094.076-.17.17-.17.055 0 .104.025.135.066.045.029.076.08.076.137 0 .061-.033.113-.084.141l.156.285c.083-.008.168-.014.255-.018l-.505-1.229c-.391.114-.697.325-.838.579zm2.104.354c-.05-.031-.083-.084-.083-.146 0-.094.076-.17.17-.17.055 0 .104.025.135.066.046.029.076.08.076.137 0 .074-.051.135-.118.154l.069.338c.049.012.093.023.135.033.1-.297.145-.75-.348-1.004 0 0 .697.162.483 1.047.026.008.051.016.071.025.065-.141.054-.473.054-.473l.094-.121c-.057-.238-.228-.479-.642-.633 0 0 .481.053.722.523l.099-.131c-.14-.254-.446-.465-.838-.58l-.504 1.229c.086.004.171.01.254.018z"/><path d="m11.294 11.092c-.08 0-.146.064-.146.145s.065.146.146.146.146-.066.146-.146-.066-.145-.146-.145zm1.531.144c0-.08-.065-.145-.146-.145s-.145.064-.145.145.064.146.145.146.146-.066.146-.146zm-2.452.371c0-.035-.026-.064-.06-.064-.006 0-.012 0-.016.002l.021.125c.032-.004.055-.029.055-.063z"/><path d="m10.313 11.424c-.012 0-.024.002-.037.006l.004.023c.012-.004.021-.006.033-.006.082 0 .146.072.146.16 0 .08-.054.145-.126.156l.005.023c.082-.014.146-.088.146-.18 0-.1-.077-.182-.171-.182zm3.313.183c0 .033.023.059.055.062l.021-.125c-.005-.002-.01-.002-.017-.002-.033.001-.059.03-.059.065z"/><path d="m13.661 11.787.004-.023c-.071-.012-.126-.076-.126-.156 0-.088.065-.16.146-.16.012 0 .021.002.033.006l.005-.023c-.014-.004-.025-.006-.038-.006-.094 0-.17.082-.17.184.001.09.063.164.146.178zm-1.586-1.422c0-.041-.033-.076-.075-.076s-.076.035-.076.076c0 .043.034.076.076.076s.075-.033.075-.076zm.333.221c.043 0 .076-.033.076-.074 0-.043-.033-.076-.076-.076-.041 0-.076.033-.076.076 0 .041.035.074.076.074zm-.856 0c.043 0 .076-.033.076-.074 0-.043-.033-.076-.076-.076-.041 0-.075.033-.075.076 0 .041.034.074.075.074z"/></g><g fill="#111"><circle cx="11.294" cy="11.236" r=".129"/><circle cx="12.68" cy="11.236" r=".129"/><path d="m11.995 11.451c.01.004.021.008.033.008.042 0 .077-.035.077-.078 0-.029-.017-.055-.043-.068.011.014.019.033.019.053 0 .046-.038.085-.086.085z"/><circle cx="11.995" cy="11.365" r=".068"/><circle cx="12" cy="10.365" r=".067"/><circle cx="12.408" cy="10.511" r=".067"/><circle cx="11.552" cy="10.511" r=".067"/><path d="m11.598 12.043c-.001 0-.001 0-.002 0 .01.004.022.008.034.008.043 0 .077-.035.077-.078 0-.029-.018-.055-.043-.068.012.016.019.033.019.053 0 .046-.038.085-.085.085zm-.66.115c-.001 0-.002 0-.002 0 .011.008.021.01.034.01.043 0 .077-.035.077-.076 0-.031-.018-.059-.043-.07.012.016.019.031.019.053-.001.046-.04.083-.085.083zm1.417-.115c-.001 0-.001 0 0 0 .008.004.021.008.032.008.044 0 .077-.035.077-.078 0-.029-.018-.055-.043-.068.011.016.019.033.019.053 0 .046-.038.085-.085.085zm.661.115c.01.008.021.01.033.01.043 0 .076-.035.076-.076 0-.031-.018-.059-.043-.07.013.016.02.031.02.053 0 .046-.039.083-.086.083z"/><circle cx="11.598" cy="11.958" r=".069"/><circle cx="10.938" cy="12.073" r=".069"/><circle cx="12.355" cy="11.958" r=".069"/><circle cx="13.016" cy="12.073" r=".069"/><path d="m10.282 11.375.083.004-.036-.108zm.193.063.024-.112-.093.067zm.14.023-.112.008.035.074zm-.077.207.109-.031-.101-.051zm-.01.029-.045.071.111.023zm-.162.137.08.08-.004-.113zm3.305-.563-.038.108.084-.004zm-.077.122-.093-.067.023.112zm-.097.076-.113-.008.077.082zm-.043.117-.102.051.109.031zm-.049.205.112-.023-.046-.071zm.152.01-.004.113.08-.08zm-1.836-1.613.279-.479.278.479h.224l.025-.053h-.219l-.279-.479.137-.234.033-.033-.023-.035-.051.005-.007.043-.118.203-.117-.203-.009-.043-.051-.005-.022.035.033.033.136.234-.278.479h-.22l.026.053z"/></g></svg>

<svg xmlns="http://www.w3.org/2000/svg" viewBox="0 0 24 16"><path fill="#111" d="M18.518,0.22h-0.252H5.734H5.482v0.252V10.94v0.13l0.104,0.075l6.266,4.527L12,15.78l0.148-0.107l6.265-4.527l0.104-0.075 v-0.13V0.472V0.22L18.518,0.22z"/><path fill="#FFF" d="M5.734,10.969L12,15.498l6.266-4.529V0.501H5.734V10.969z"/><path fill="#111" d="M16.395,13.434c0-0.07-0.058-0.127-0.127-0.127h-0.182v0.43h0.08v-0.176h0.058l0.081,0.176h0.09l-0.085-0.182 C16.358,13.535,16.395,13.488,16.395,13.434z M16.268,13.48h-0.102v-0.094h0.102c0.025,0,0.046,0.021,0.046,0.047 S16.293,13.48,16.268,13.48z"/><path fill="#111" d="M16.24,13.145c-0.207,0-0.375,0.17-0.375,0.377c0,0.205,0.168,0.373,0.375,0.373s0.374-0.168,0.374-0.373 C16.614,13.314,16.447,13.145,16.24,13.145z M16.24,13.814c-0.163,0-0.295-0.131-0.295-0.293c0-0.164,0.132-0.295,0.295-0.295 c0.162,0,0.294,0.131,0.294,0.295C16.534,13.684,16.402,13.814,16.24,13.814z"/><g fill="#ACAEA9"><path d="M6.147 10.758L12 14.988l5.852-4.23V8.183H6.147V10.758zM6.147 7.821h11.704V.915H6.147V7.821z"/></g><g fill="#111"><path d="M6.517 10.57L12 14.533l5.482-3.963V8.824H6.517V10.57zM6.517 7.277h10.966V1.284H6.517V7.277z"/></g><g fill="#ACAEA9"><path d="M7.86 5.582V4.281c0-1.51.352-2.049.352-2.049H6.846c0 0 .352.539.352 2.049 0 1.509-.352 2.048-.352 2.048h4.461c0 0 .372-.506.372-1.277 0 0-.509.53-1.704.53H7.86zM12.069 2.232c0 0 .353.539.353 2.049 0 1.509-.353 2.048-.353 2.048h1.015V4.803h3.057v1.526h1.014c0 0-.353-.539-.353-2.048 0-1.51.353-2.049.353-2.049H12.069z"/></g><g fill="#FFF"><path d="M12.223 2.327c.106.251.294.846.294 1.955 0 1.108-.188 1.703-.294 1.953h.767V4.708h3.246v1.526c.129 0 .57 0 .766 0-.106-.25-.293-.845-.293-1.953 0-1.109.187-1.704.293-1.955C16.724 2.327 12.5 2.327 12.223 2.327zM7.766 5.677V4.281c0-1.109.187-1.704.294-1.955H6.999c.106.251.293.846.293 1.955 0 1.108-.187 1.703-.293 1.953h4.257c.069-.11.27-.471.316-.98-.243.167-.751.423-1.598.423H7.766z"/></g><path fill="#ACAEA9" d="M12.989,4.15h3.246V2.885h-3.246V4.15z"/><path d="M13.084 2.979H16.141V4.056H13.084z"/><path fill="#FFF" d="M13.647,12.633l0.408-2.332l-0.086-0.037c0,0-0.33,0.443-0.394,0.527c-0.136-0.168-0.395-0.375-0.746-0.49 c0.027-0.066,0.155-0.379,0.155-0.379s-0.196,0.08-0.28,0.113c0.008-0.016,0.018-0.033,0.018-0.033s-0.3,0.016-0.347,0.018 c-0.024-0.041-0.188-0.332-0.211-0.371c0.02-0.033,0.082-0.143,0.088-0.154c0.011-0.008,0.088-0.074,0.088-0.074L12.24,9.23 l-0.212,0.015c0,0-0.003,0.099-0.004,0.118L12,9.402l-0.024-0.039c-0.001-0.02-0.005-0.118-0.005-0.118L11.759,9.23l-0.1,0.189 c0,0,0.077,0.066,0.087,0.074c0.008,0.012,0.069,0.121,0.089,0.154c-0.022,0.039-0.186,0.33-0.21,0.371 c-0.048-0.002-0.348-0.018-0.348-0.018s0.009,0.018,0.018,0.033c-0.084-0.033-0.28-0.113-0.28-0.113s0.127,0.312,0.155,0.379 c-0.351,0.115-0.61,0.322-0.747,0.49c-0.062-0.084-0.394-0.527-0.394-0.527l-0.084,0.037l0.406,2.332c0,0,0.578,0.148,1.648,0.148 C13.069,12.781,13.647,12.633,13.647,12.633z"/><path d="M11.662,12.674c0,0-0.529-0.049-0.844-0.17c0.214,0.031,0.562,0.072,0.881,0.072c0,0-0.431-0.043-0.716-0.15 c0.216,0.027,0.522,0.061,0.805,0.061c0,0-0.42-0.043-0.705-0.148c0.256-0.055,0.57-0.098,0.917-0.098s0.66,0.043,0.916,0.098 c-0.285,0.105-0.704,0.148-0.704,0.148c0.281,0,0.588-0.033,0.804-0.061c-0.285,0.107-0.715,0.15-0.715,0.15 c0.317,0,0.666-0.041,0.881-0.072c-0.314,0.121-0.845,0.17-0.845,0.17c0.78-0.021,1.242-0.137,1.242-0.137l0.357-2.08 l-0.362,0.484c-0.159-0.26-0.469-0.469-0.865-0.584l0.109-0.266l-0.56,0.25v-0.137L12,9.76l-0.26,0.445v0.137l-0.561-0.25 l0.109,0.266c-0.396,0.115-0.704,0.324-0.864,0.584l-0.362-0.484l0.358,2.08C10.421,12.537,10.883,12.652,11.662,12.674z" fill="#111"/><g fill="#ACAEA9"><path d="M11.74 10.393l-.473-.211.473 1.15V10.393zM12.259 10.393v.939l.474-1.15L12.259 10.393zM12.211 10.373L12 10.098l-.212.275L12 10.625 12.211 10.373z"/><path d="M13.656,11.811c-0.093-0.016-0.164-0.102-0.164-0.203c0-0.113,0.087-0.205,0.193-0.205 c0.015,0,0.027,0,0.04,0.004l0.132-0.766l-0.573,0.766c0.013,0.367-0.077,0.516-0.077,0.516s-0.191-0.078-0.406-0.121 l-0.074-0.371c-0.033,0-0.062-0.01-0.088-0.027h-0.002l-0.189,0.342c0,0-0.237-0.023-0.356-0.023l0.107-0.328L12,10.883 l-0.197,0.51l0.106,0.328c-0.12,0-0.357,0.023-0.357,0.023l-0.174-0.316c-0.011,0.002-0.022,0.002-0.034,0.002 c-0.024,0-0.047-0.006-0.067-0.016l-0.078,0.387c-0.214,0.043-0.406,0.121-0.406,0.121s-0.089-0.148-0.077-0.516l-0.573-0.766 l0.132,0.766c0.013-0.004,0.026-0.004,0.04-0.004c0.107,0,0.194,0.092,0.194,0.205c0,0.102-0.072,0.188-0.165,0.203l0.114,0.662 c0.181-0.07,0.787-0.279,1.543-0.279c0.755,0,1.362,0.209,1.543,0.279L13.656,11.811z"/></g><g fill="#111"><path d="M12.089 10.365c0-.049-.041-.09-.089-.09-.05 0-.088.041-.088.09S11.95 10.453 12 10.453C12.048 10.453 12.089 10.414 12.089 10.365zM12.479 10.457c-.017-.021-.042-.035-.07-.035-.049 0-.088.039-.088.09 0 .039.028.076.066.086.015.008.03.014.047.014.047 0 .084-.037.084-.084C12.518 10.498 12.502 10.471 12.479 10.457zM11.623 10.457c-.017-.021-.042-.035-.071-.035-.049 0-.088.039-.088.09 0 .039.029.076.067.086.014.008.029.014.047.014.047 0 .084-.037.084-.084C11.662 10.498 11.646 10.471 11.623 10.457z"/></g><g fill="#FFF"><path d="M10.489 11.029l.099.131c.24-.471.722-.523.722-.523-.412.154-.585.395-.641.633l.093.121c0 0-.012.332.055.473.021-.01.044-.018.071-.025-.215-.885.481-1.047.481-1.047-.492.254-.445.707-.346 1.004.041-.01.086-.021.136-.033l.074-.367c-.064-.023-.109-.086-.109-.158 0-.094.076-.17.17-.17.055 0 .104.025.135.066.045.029.076.08.076.137 0 .061-.033.113-.084.141l.156.285c.083-.008.168-.014.255-.018l-.505-1.229C10.936 10.564 10.63 10.775 10.489 11.029zM12.593 11.383c-.05-.031-.083-.084-.083-.146 0-.094.076-.17.17-.17.055 0 .104.025.135.066.046.029.076.08.076.137 0 .074-.051.135-.118.154l.069.338c.049.012.093.023.135.033.1-.297.145-.75-.348-1.004 0 0 .697.162.483 1.047.026.008.051.016.071.025.065-.141.054-.473.054-.473l.094-.121c-.057-.238-.228-.479-.642-.633 0 0 .481.053.722.523l.099-.131c-.14-.254-.446-.465-.838-.58l-.504 1.229c.086.004.171.01.254.018L12.593 11.383z"/><path d="M11.294 11.092c-.08 0-.146.064-.146.145s.065.146.146.146.146-.066.146-.146S11.374 11.092 11.294 11.092zM12.825 11.236c0-.08-.065-.145-.146-.145s-.145.064-.145.145.064.146.145.146S12.825 11.316 12.825 11.236zM10.373 11.607c0-.035-.026-.064-.06-.064-.006 0-.012 0-.016.002l.021.125C10.35 11.666 10.373 11.641 10.373 11.607z"/><path d="M10.313 11.424c-.012 0-.024.002-.037.006l.004.023c.012-.004.021-.006.033-.006.082 0 .146.072.146.16 0 .08-.054.145-.126.156l.005.023c.082-.014.146-.088.146-.18C10.484 11.506 10.407 11.424 10.313 11.424zM13.626 11.607c0 .033.023.059.055.062l.021-.125c-.005-.002-.01-.002-.017-.002C13.652 11.543 13.626 11.572 13.626 11.607z"/><path d="M13.661 11.787l.004-.023c-.071-.012-.126-.076-.126-.156 0-.088.065-.16.146-.16.012 0 .021.002.033.006l.005-.023c-.014-.004-.025-.006-.038-.006-.094 0-.17.082-.17.184C13.516 11.699 13.578 11.773 13.661 11.787zM12.075 10.365c0-.041-.033-.076-.075-.076s-.076.035-.076.076c0 .043.034.076.076.076S12.075 10.408 12.075 10.365zM12.408 10.586c.043 0 .076-.033.076-.074 0-.043-.033-.076-.076-.076-.041 0-.076.033-.076.076C12.332 10.553 12.367 10.586 12.408 10.586zM11.552 10.586c.043 0 .076-.033.076-.074 0-.043-.033-.076-.076-.076-.041 0-.075.033-.075.076C11.477 10.553 11.511 10.586 11.552 10.586z"/></g><g fill="#111"><circle cx="11.294" cy="11.236" r=".129"/><circle cx="12.68" cy="11.236" r=".129"/><path d="M11.995,11.451L11.995,11.451c0.01,0.004,0.021,0.008,0.033,0.008c0.042,0,0.077-0.035,0.077-0.078 c0-0.029-0.017-0.055-0.043-0.068c0.011,0.014,0.019,0.033,0.019,0.053C12.081,11.412,12.043,11.451,11.995,11.451z"/><circle cx="11.995" cy="11.365" r=".068"/><circle cx="12" cy="10.365" r=".067"/><circle cx="12.408" cy="10.511" r=".067"/><circle cx="11.552" cy="10.511" r=".067"/><path d="M11.598 12.043c-.001 0-.001 0-.002 0 .01.004.022.008.034.008.043 0 .077-.035.077-.078 0-.029-.018-.055-.043-.068.012.016.019.033.019.053C11.683 12.004 11.645 12.043 11.598 12.043zM10.938 12.158c-.001 0-.002 0-.002 0 .011.008.021.01.034.01.043 0 .077-.035.077-.076 0-.031-.018-.059-.043-.07.012.016.019.031.019.053C11.022 12.121 10.983 12.158 10.938 12.158zM12.355 12.043C12.354 12.043 12.354 12.043 12.355 12.043c.008.004.021.008.032.008.044 0 .077-.035.077-.078 0-.029-.018-.055-.043-.068.011.016.019.033.019.053C12.44 12.004 12.402 12.043 12.355 12.043zM13.016 12.158C13.016 12.158 13.016 12.158 13.016 12.158c.01.008.021.01.033.01.043 0 .076-.035.076-.076 0-.031-.018-.059-.043-.07.013.016.02.031.02.053C13.102 12.121 13.063 12.158 13.016 12.158z"/><circle cx="11.598" cy="11.958" r=".069"/><circle cx="10.938" cy="12.073" r=".069"/><circle cx="12.355" cy="11.958" r=".069"/><circle cx="13.016" cy="12.073" r=".069"/><path d="M10.282 11.375L10.365 11.379 10.329 11.271zM10.475 11.438L10.499 11.326 10.406 11.393zM10.615 11.461L10.503 11.469 10.538 11.543zM10.538 11.668L10.647 11.637 10.546 11.586zM10.528 11.697L10.483 11.768 10.594 11.791zM10.366 11.834L10.446 11.914 10.442 11.801zM13.671 11.271L13.633 11.379 13.717 11.375zM13.594 11.393L13.501 11.326 13.524 11.438zM13.497 11.469L13.384 11.461 13.461 11.543zM13.454 11.586L13.352 11.637 13.461 11.668zM13.405 11.791L13.517 11.768 13.471 11.697zM13.557 11.801L13.553 11.914 13.633 11.834zM11.721 10.188L12 9.709 12.278 10.188 12.502 10.188 12.527 10.135 12.308 10.135 12.029 9.656 12.166 9.422 12.199 9.389 12.176 9.354 12.125 9.359 12.118 9.402 12 9.605 11.883 9.402 11.874 9.359 11.823 9.354 11.801 9.389 11.834 9.422 11.97 9.656 11.692 10.135 11.472 10.135 11.498 10.188z"/></g></svg>
